X:1
T:Aus dem Schenkenbuch II
T:Aus dem Schenkenbuch II
T:Halfdan Kjerulf
T:E. Geibel
C:Halvdan Kjerulf
Z:E. Geibel
%%score [ 1 2 3 ( 4 5 ) ]
L:1/8
Q:1/4=92
M:6/8
K:Bb
V:1 treble-8 nm="Tenor 1"
V:2 treble-8 nm="Tenor 2"
V:3 bass nm="Baryton"
V:4 bass nm="Bass"
V:5 bass 
V:1
"^Animato"!mf! d2 d d3/2 d/ d | d e =B c2 _B | A2 c B c d | d3 c2 f |!<(! =e3/2 d/ c!<)! c f a | %5
w: Au- gen feu- rig und|feu- ri- ger Wein, wo|die zu- sam- men hand-|tie- ren, da|müsst' ich ja kühl wie der|
!>(! a2 g!>)! f2 =e | d2 z z2!<(! A | (d3!<)! d) =e f |!>(! (c6 |"^rit." c6)!>)! | %10
w: Nord- pol sein um|nicht, den|Kopf * zu ver-|lie-||
 c3"^a tempo risoluto" F F!<(! F | F!<)! A c f2 =e | (_e3 e2) _d | %13
w: ren. Lass ihn denn|fah- ren da- hin, den|Wicht! * Er|
!<(! _d3/2 d/ d!<)!"^rit." d d e |!>(! f3!>)! !fermata!F2!mf!"^a tempo" f | F G A B c d | %16
w: schuf mir nur Gril- len und|Schmer- zen; Ver-|lieb- te und Trun- ke- ne|
 e f e (dc) B | g g f e2 e | e e d c2 d | e3 g2 g |!>(! (g3!>)! !fermata!f2)!p! d | %21
w: brau- chen ihn nicht, * sie|brau- chen ihn nicht, sie|brau- chen ihn nicht, sie|brau- chen ihn|nicht; * sie|
[M:2/4]!mf!"^L'istesso tempo" d3/2 d/ d d |!<(! d2 e =e!<)! | =e3/2 e/ e e | =e2 f2- | %25
w: den- ken mit dem|Her- zen, sie|den- ken mit dem|Her- zen,|
 f2"^lento" f f |!<(! (f3 ^f)!<)! |!>(! !fermata!g3!>)!!p! !>!g | .e .c .A !>!f | %29
w: * mit dem|Her- *|zen; sie|den- ken, ja sie|
 .d!<(! .B G e!<)! |!>(! (d2 c2) | B2!>)! z2 |] %32
w: den- ken mit dem|Her- *|zen.|
V:2
!mf! B2 B _A3/2 A/ A | G G G G2 G | A2 A B A B | B3 A2 c |!<(! B3/2 B/ B!<)! A c f | %5
w: Au- gen feu- rig und|feu- ri- ger Wein, wo|die zu- sam- men hand-|tie- ren, da|müsst' ich ja kühl wie der|
!>(! f2 =e!>)! d2 ^c | d2 A F2!<(! F | (_A3!<)! A) A A |!>(! (=A3 (_A3) |"^rit." (G3) B3)!>)! | %10
w: Nord- pol sein um|nicht, um nicht den|Kopf * zu ver-|lie- *||
 A3"^a tempo risoluto" F F!<(! F | F!<)! F F A2 B | (c3 c2) B |!<(! B3/2 B/ B!<)!"^rit." B B c | %14
w: ren. Lass ihn denn|fah- ren da- hin, den|Wicht! * Er|schuf mir nur Gril- len und|
!>(! c3!>)! !fermata!A2"^a tempo" z | z2 z z2!mf! f | F G A B c d | e e d c2 c | G G G G2 =B | %19
w: Schmer- zen;|Ver-|lieb- te und Trun- ke- ne|brau- chen ihn nicht, sie|brau- chen ihn nicht, sie|
 c3 e2 e |!>(! (e3 !fermata!e2)!>)!!p! F |[M:2/4]!mf! F3/2 F/ F F |!<(! F2 E B!<)! | B3/2 B/ B B | %24
w: brau- chen ihn|nicht; * sie|den- ken mit dem|Her- zen, sie|den- ken mit dem|
 B2 B2- | B2"^lento" B B |!<(! (B2 (3B/A/B/(3d/c/B/)!<)! |!>(! !fermata!B3!>)!!p! !>!e | %28
w: Her- zen,|* mit dem|Her- * * * * * *|zen; sie|
 .c .A .F !>!d | .B!<(! .G E c!<)! |!>(! (B2 e2) | d2!>)! z2 |] %32
w: den- ken, ja sie|den- ken mit dem|Her- *|zen.|
V:3
!mf! F,2 F, F,3/2 F,/ F, | F, G, F, E,2 =E, | F,2 F, F, F, F, | F,3 A,2 A, | %4
w: Au- gen feu- rig und|feu- ri- ger Wein, wo|die zu- sam- men hand-|tie- ren, da|
!<(! G,3/2 F,/ =E,!<)! F, A, C |!>(! C2 B,!>)! A,2 G, | F,2 z z2!<(! D, | (F,3!<)! F,) =E, D, | %8
w: müsst' ich ja kühl wie der|Nord- pol sein um|nicht, den|Kopf * zu ver-|
 (F,6 |"^rit."!<(! (F,)=E,D,!<)!!>(! E,A,G,)!>)! | F,3"^a tempo risoluto" F, F,!<(! F, | %11
w: lie-||ren. Lass ihn denn|
 F,!<)! F, F, F,2 F, | (F,3 F,2) F, |!<(! F,3/2 F,/ F,!<)!"^rit." B, B, B, | %14
w: fah- ren da- hin, den|Wicht! * Er|schuf mir nur Gril- len und|
!>(! =A,3!>)! !fermata!C2"^a tempo" z | z6 | z2 z z2!mf! D | G, A, =B, C C C | =B, B, B, C2 G, | %19
w: Schmer- zen;||Ver-|lieb- te und Trun- ke- ne|brau- chen ihn nicht, sie|
 (G,2 C) C2 C |!>(! (C3 !fermata!C2)!>)!!p! B, |[M:2/4]!mf! B,3/2 B,/ _A, A, |!<(! _A,2 G, G,!<)! | %23
w: brau- * chen ihn|nicht; * sie|den- ken mit dem|Her- zen, sie|
 G,3/2 G,/ G, G, | G,2 F,2- | F,2"^lento" _A, A, |!<(! _A,4!<)! |!>(! !fermata!G,3!>)! z | %28
w: den- ken mit dem|Her- zen,|* mit dem|Her-|zen;|
 z!p! .A, .C .A, | z .G, .B, .G, |!<(! F, F,!<)! (B,!>(!A,) | F,2!>)! z2 |] %32
w: sie den- ken,|sie den- ken|mit dem Her- *|zen.|
V:4
!mf! B,,2 B,, =B,,3/2 B,,/ B,, | C, C, D, E,2 G, | F,2 _E, D, C, B,, | F,3 F,2 z | %4
w: Au- gen feu- rig und|feu- ri- ger Wein, wo|die zu- sam- men hand-|tie- ren,|
!<(! z2 C,!<)! C A, F, |!>(! C, C, ^C,!>)! D,2 =E, | F,2 A, F,2!<(! D, | (=B,,3!<)! B,,) B,, B,, | %8
w: da müsst' ich ja|kühl wie der Nord- pol|sein um nicht den|Kopf * zu ver-|
!<(! (C,6!<)! |"^rit."!>(! C,6)!>)! | F,3"^a tempo risoluto" F, F,!<(! F, | F,!<)! F, F, F,2 F, | %12
w: lie-||ren. Lass ihn denn|fah- ren da- hin, den|
 (F,3 F,2) F, |!<(! F,3/2 F,/ F,!<)!"^rit." B, B, B, |!>(! F,3!>)! !fermata!F,2"^a tempo" z | z6 | %16
w: Wicht! * Er|schuf mir nur Gril- len und|Schmer- zen;||
 z6 | z2 G, C, E, F, | G, G, F, E, E, D, | C,2 C, B,, B,, B,, | %20
w: |Ver- lieb- te und|Trun- ke- ne brau- chen ihn|nicht, sie brau- chen ihn|
!>(! (A,,3 !fermata!A,,2)!>)!!p! B,, |[M:2/4]!mf! B,,3/2 B,,/ =B,, B,, |!<(! =B,,2 C, ^C,!<)! | %23
w: nicht; * sie|den- ken mit dem|Her- zen, sie|
 ^C,3/2 C,/ C, C, | ^C,2 D,2- | D,2"^lento" D, D, |!<(! D,4!<)! |!>(! !fermata!E,3!>)! z | %28
w: den- ken mit dem|Her- zen,|* mit dem|Her-|zen;|
 z!p! .F, .A, .F, | z .E, .G, .C, |!<(! F, F,!<)!!>(! F,2 | B,,2!>)! z2 |] %32
w: sie den- ken,|sie den- ken|mit dem Her-|zen.|
V:5
 x6 | x6 | x6 | x6 | x6 | x6 | x6 | x6 | x6 | x6 | x6 | x6 | x6 | x6 | x6 | x6 | x6 | x6 | x6 | %19
 x6 | x6 |[M:2/4] x4 | x4 | x4 | x4 | x4 | x4 | x4 | x4 | x4 | F,F, F,,2 | x4 |] %32

